;START_OF_HEADER
;HEADER_VERSION:0.1
;FLAVOR:Griffin
;GENERATOR.NAME:Cura_SteamEngine
;GENERATOR.VERSION:4.10.0
;GENERATOR.BUILD_DATE:2021-06-29
;TARGET_MACHINE.NAME:Ultimaker 3
;EXTRUDER_TRAIN.0.INITIAL_TEMPERATURE:220
;EXTRUDER_TRAIN.0.MATERIAL.VOLUME_USED:5287
;EXTRUDER_TRAIN.0.MATERIAL.GUID:506c9f0d-e3aa-4bd4-b2d2-23e2425b1aa9
;EXTRUDER_TRAIN.0.NOZZLE.DIAMETER:0.8
;EXTRUDER_TRAIN.0.NOZZLE.NAME:AA 0.8
;BUILD_PLATE.TYPE:glass
;BUILD_PLATE.INITIAL_TEMPERATURE:65
;PRINT.TIME:381
;PRINT.GROUPS:1
;PRINT.SIZE.MIN.X:9
;PRINT.SIZE.MIN.Y:6
;PRINT.SIZE.MIN.Z:0.53
;PRINT.SIZE.MAX.X:178.915
;PRINT.SIZE.MAX.Y:128.397
;PRINT.SIZE.MAX.Z:2
;END_OF_HEADER
;Generated with Cura_SteamEngine 4.10.0
T0
M82 ;absolute extrusion mode

G92 E0
M109 S220
G0 F15000 X9 Y6 Z2
G280
G1 F1500 E-5
;LAYER_COUNT:1
;LAYER:0
M107
M204 S625
M205 X30 Y30
G0 F6666.7 X61.706 Y53.188 Z0.53
M204 S500
M205 X25 Y25
;TYPE:SKIRT
G1 F900 E0
G1 F1200 X62.157 Y52.746 E0.08263
G1 X62.238 Y52.672 E0.09699
G1 X63.276 Y51.753 E0.27839
G1 X63.722 Y51.371 E0.35523
G1 X63.957 Y51.186 E0.39437
G1 X64.855 Y50.544 E0.53881
G1 X65.556 Y50.064 E0.64998
G1 X66.088 Y49.711 E0.73352
G1 X66.338 Y49.56 E0.77174
G1 X67.142 Y49.12 E0.89167
G1 X68.029 Y48.656 E1.02266
G1 X68.658 Y48.336 E1.115
G1 X69.113 Y48.123 E1.18074
G1 X69.305 Y48.04 E1.20811
G1 X69.801 Y47.869 E1.27676
G1 X70.318 Y47.775 E1.34552
G1 X70.768 Y47.758 E1.40444
G1 X73.514 Y47.833 E1.76389
G1 X76.22 Y47.833 E2.11798
G1 X78.994 Y47.754 E2.4811
G1 X81.672 Y47.601 E2.83209
G1 X82.697 Y47.515 E2.96669
G1 X83.246 Y47.479 E3.03868
G1 X83.918 Y47.501 E3.12666
G1 X85.382 Y47.692 E3.31985
G1 X85.77 Y47.748 E3.37114
G1 X88.524 Y48.063 E3.73386
G1 X91.223 Y48.296 E4.08834
G1 X93.923 Y48.452 E4.44222
G1 X96.692 Y48.532 E4.8047
G1 X99.396 Y48.535 E5.15852
G1 X102.135 Y48.46 E5.51706
G1 X104.874 Y48.308 E5.87601
G1 X107.589 Y48.081 E6.23251
G1 X110.116 Y47.795 E6.56528
G1 X110.775 Y47.757 E6.65165
G1 X113.517 Y47.833 E7.01059
G1 X116.221 Y47.833 E7.36441
G1 X118.994 Y47.754 E7.7274
G1 X121.673 Y47.601 E8.07852
G1 X122.697 Y47.515 E8.21299
G1 X123.245 Y47.479 E8.28485
G1 X123.916 Y47.501 E8.3727
G1 X125.382 Y47.692 E8.56614
G1 X125.77 Y47.748 E8.61744
G1 X128.524 Y48.063 E8.98015
G1 X131.223 Y48.296 E9.33463
G1 X133.923 Y48.452 E9.68852
G1 X136.692 Y48.532 E10.051
G1 X139.396 Y48.535 E10.40482
G1 X142.135 Y48.46 E10.76335
G1 X144.874 Y48.308 E11.12231
G1 X147.589 Y48.081 E11.47881
G1 X150.116 Y47.795 E11.81158
G1 X150.775 Y47.757 E11.89795
G1 X153.517 Y47.833 E12.25688
G1 X156.221 Y47.833 E12.6107
G1 X158.994 Y47.754 E12.9737
G1 X161.673 Y47.601 E13.32482
G1 X162.699 Y47.515 E13.45955
G1 X163.238 Y47.48 E13.53022
G1 X163.763 Y47.486 E13.59892
G1 X164.281 Y47.572 E13.66763
G1 X164.78 Y47.735 E13.73632
G1 X165.292 Y47.998 E13.81164
G1 X166.146 Y48.533 E13.9435
G1 X167.134 Y49.179 E14.09797
G1 X167.667 Y49.538 E14.18206
G1 X167.908 Y49.716 E14.22126
G1 X168.68 Y50.34 E14.35115
G1 X169.597 Y51.109 E14.50775
G1 X170.032 Y51.483 E14.58281
G1 X170.266 Y51.704 E14.62493
G1 X171.102 Y52.571 E14.78253
G1 X171.723 Y53.24 E14.90197
G1 X172.218 Y53.789 E14.99869
G1 X172.586 Y54.251 E15.07598
G1 X173.535 Y55.575 E15.28913
G1 X173.943 Y56.161 E15.38257
G1 X174.242 Y56.637 E15.45612
G1 X174.483 Y57.057 E15.51948
G1 X174.818 Y57.662 E15.60997
G1 X175.081 Y58.198 E15.6881
G1 X175.658 Y59.489 E15.87313
G1 X175.959 Y60.191 E15.97308
G1 X176.197 Y60.878 E16.06821
G1 X176.583 Y62.172 E16.24491
G1 X176.795 Y62.927 E16.34752
G1 X176.93 Y63.557 E16.43183
G1 X177.159 Y64.952 E16.61681
G1 X177.26 Y65.634 E16.70702
G1 X177.291 Y65.934 E16.74648
G1 X177.352 Y66.979 E16.88346
G1 X177.384 Y67.78 E16.98835
G1 X177.398 Y68.377 E17.06649
G1 X177.394 Y68.963 E17.14317
G1 X177.391 Y69.081 E17.15862
G1 X177.36 Y69.834 E17.25723
G1 X177.13 Y73.969 E17.79914
G1 X177.055 Y75.096 E17.94693
G1 X176.839 Y77.926 E18.31832
G1 X176.67 Y80.638 E18.67387
G1 X176.577 Y83.379 E19.03274
G1 X176.562 Y86.117 E19.39102
G1 X176.623 Y88.821 E19.74493
G1 X176.765 Y91.592 E20.10799
G1 X176.979 Y94.284 E20.46135
G1 X177.274 Y97.015 E20.82079
G1 X177.639 Y99.689 E21.17393
G1 X178.095 Y102.442 E21.53907
G1 X178.635 Y105.261 E21.91464
G1 X178.68 Y105.57 E21.9555
G1 X178.783 Y106.614 E22.09277
G1 X178.862 Y107.61 E22.22351
G1 X178.901 Y108.218 E22.30323
G1 X178.915 Y108.709 E22.36751
G1 X178.905 Y110.133 E22.55384
G1 X178.815 Y113.461 E22.98947
G1 X178.769 Y114.56 E23.1334
G1 X178.381 Y120.116 E23.86218
G1 X178.317 Y120.925 E23.96837
G1 X178.291 Y121.219 E24.00699
G1 X178.223 Y121.877 E24.09355
G1 X178.129 Y122.393 E24.16218
G1 X177.958 Y122.89 E24.23095
G1 X177.699 Y123.385 E24.30406
G1 X177.22 Y124.091 E24.41569
G1 X176.872 Y124.49 E24.48497
G1 X176.676 Y124.692 E24.5218
G1 X175.823 Y125.499 E24.67545
G1 X175.416 Y125.86 E24.74664
G1 X175.344 Y125.922 E24.75907
G1 X174.546 Y126.585 E24.89483
G1 X174.001 Y127.01 E24.98526
G1 X173.495 Y127.336 E25.06402
G1 X172.715 Y127.746 E25.17933
G1 X172.436 Y127.881 E25.21988
G1 X171.947 Y128.073 E25.28863
G1 X171.341 Y128.211 E25.36995
G1 X171.052 Y128.262 E25.40835
G1 X170.401 Y128.359 E25.49448
G1 X169.878 Y128.397 E25.56309
G1 X169.199 Y128.342 E25.65223
G1 X166.287 Y127.99 E26.03604
G1 X163.588 Y127.742 E26.3907
G1 X160.848 Y127.567 E26.74996
G1 X158.113 Y127.471 E27.10806
G1 X155.373 Y127.452 E27.4666
G1 X152.672 Y127.51 E27.82011
G1 X149.933 Y127.645 E28.17894
G1 X147.197 Y127.859 E28.53804
G1 X144.436 Y128.158 E28.90144
G1 X143.62 Y128.224 E29.00856
G1 X143.523 Y128.23 E29.02128
G1 X142.964 Y128.254 E29.09449
G1 X142.672 Y128.254 E29.1327
G1 X141.468 Y128.204 E29.29038
G1 X138.684 Y128.128 E29.6548
G1 X135.982 Y128.13 E30.00836
G1 X133.213 Y128.211 E30.37084
G1 X131.151 Y128.323 E30.64106
G1 X130.122 Y128.39 E30.77599
G1 X129.536 Y128.378 E30.85268
G1 X128.674 Y128.277 E30.96625
G1 X126.287 Y127.99 E31.28084
G1 X123.588 Y127.742 E31.63549
G1 X120.848 Y127.567 E31.99475
G1 X118.113 Y127.471 E32.35285
G1 X115.373 Y127.452 E32.71139
G1 X112.672 Y127.51 E33.0649
G1 X109.933 Y127.645 E33.42374
G1 X107.197 Y127.859 E33.78284
G1 X104.436 Y128.158 E34.14623
G1 X103.62 Y128.224 E34.25335
G1 X103.523 Y128.23 E34.26607
G1 X102.964 Y128.254 E34.33928
G1 X102.672 Y128.254 E34.37749
G1 X101.468 Y128.204 E34.53517
G1 X98.684 Y128.128 E34.8996
G1 X95.982 Y128.13 E35.25316
G1 X93.213 Y128.211 E35.61564
G1 X91.151 Y128.323 E35.88585
G1 X90.122 Y128.39 E36.02078
G1 X89.536 Y128.378 E36.09747
G1 X88.674 Y128.277 E36.21104
G1 X86.287 Y127.99 E36.52563
G1 X83.588 Y127.742 E36.88028
G1 X80.848 Y127.567 E37.23955
G1 X78.113 Y127.471 E37.59764
G1 X75.373 Y127.452 E37.95618
G1 X72.672 Y127.51 E38.30969
G1 X69.933 Y127.645 E38.66853
G1 X67.197 Y127.859 E39.02763
G1 X64.436 Y128.158 E39.39102
G1 X63.62 Y128.224 E39.49815
G1 X63.522 Y128.23 E39.51099
G1 X62.958 Y128.254 E39.58486
G1 X62.433 Y128.236 E39.6536
G1 X61.911 Y128.144 E39.72295
G1 X61.517 Y128.05 E39.77596
G1 X60.927 Y127.894 E39.85581
G1 X60.431 Y127.722 E39.92451
G1 X60.181 Y127.601 E39.96085
G1 X59.596 Y127.288 E40.04766
G1 X59.077 Y126.962 E40.12786
G1 X58.622 Y126.614 E40.20282
G1 X58.341 Y126.389 E40.24992
G1 X57.934 Y126.055 E40.31881
G1 X57.847 Y125.981 E40.33376
G1 X57.202 Y125.415 E40.44605
G1 X57.108 Y125.329 E40.46272
G1 X56.284 Y124.55 E40.61109
G1 X55.81 Y124.03 E40.70316
G1 X55.447 Y123.529 E40.78412
G1 X55.234 Y123.177 E40.83795
G1 X55 Y122.707 E40.90665
G1 X54.84 Y122.207 E40.97535
G1 X54.761 Y121.718 E41.04016
G1 X54.692 Y120.943 E41.14197
G1 X54.344 Y116.299 E41.75135
G1 X54.236 Y114.396 E42.00076
G1 X54.104 Y110.861 E42.46364
G1 X54.073 Y109.376 E42.658
G1 X54.077 Y109.053 E42.70026
G1 X54.132 Y107.767 E42.86869
G1 X54.204 Y106.599 E43.02182
G1 X54.246 Y106.044 E43.09465
G1 X54.283 Y105.734 E43.1355
G1 X54.478 Y104.573 E43.28954
G1 X54.611 Y103.866 E43.38368
G1 X55.078 Y101.173 E43.74132
G1 X55.467 Y98.485 E44.09671
G1 X55.782 Y95.766 E44.45487
G1 X56.02 Y93.036 E44.81345
G1 X56.181 Y90.301 E45.17195
G1 X56.263 Y87.599 E45.52567
G1 X56.269 Y84.859 E45.8842
G1 X56.197 Y82.105 E46.24469
G1 X56.126 Y80.638 E46.43687
G1 X55.827 Y75.26 E47.14168
G1 X55.777 Y74.131 E47.28955
G1 X55.611 Y69.349 E47.91566
G1 X55.598 Y68.719 E47.99811
G1 X55.6 Y68.512 E48.0252
G1 X55.637 Y67.571 E48.14842
G1 X55.696 Y66.507 E48.28786
G1 X55.743 Y65.837 E48.37575
G1 X55.817 Y65.278 E48.44953
G1 X55.836 Y65.163 E48.46478
G1 X56.126 Y63.608 E48.67177
G1 X56.264 Y62.931 E48.76217
G1 X56.407 Y62.399 E48.83426
G1 X56.515 Y62.059 E48.88094
G1 X56.91 Y60.869 E49.045
G1 X57.135 Y60.216 E49.13538
G1 X57.34 Y59.726 E49.20488
G1 X57.497 Y59.393 E49.25306
G1 X58.054 Y58.251 E49.41931
G1 X58.338 Y57.686 E49.50206
G1 X58.594 Y57.245 E49.56878
G1 X58.831 Y56.878 E49.62595
G1 X59.478 Y55.903 E49.77906
G1 X59.886 Y55.31 E49.87325
G1 X60.237 Y54.862 E49.94772
G1 X60.311 Y54.774 E49.96276
G1 X61.251 Y53.695 E50.15002
G1 X61.706 Y53.188 E50.23915
M204 S625
M205 X30 Y30
G1 F1500 E45.23915
;MESH:Side_Shield_EH_conductive_withhole.STL(1)
G0 F6666.7 X70.659 Y49.516
G0 X83.708 Y49.228
G0 X86.713 Y51.185
G0 X88.941 Y53.052
G0 X90.859 Y55.118
G0 X92.422 Y57.302
G0 X93.177 Y58.617
G0 X94.245 Y61.014
G0 X94.988 Y63.515
G0 X98.127 Y81.248
G0 X99.531 Y83.247
G0 X102.339 Y85.021
G0 X125.282 Y89.308
G0 X138.666 Y98.101
G0 X141.09 Y99.56
G0 X142.832 Y105.234
G0 X143.807 Y106.152
M204 S500
M205 X25 Y25
;TYPE:WALL-INNER
G1 F900 E50.23915
G1 F1200 X145.09 Y106.497 E50.38287
G1 X146.374 Y106.152 E50.52668
G1 X147.312 Y105.214 E50.67017
G1 X147.657 Y103.93 E50.81399
G1 X147.312 Y102.647 E50.9577
G1 X146.374 Y101.706 E51.10142
G1 X145.09 Y101.363 E51.24519
G1 X143.807 Y101.706 E51.38884
G1 X142.866 Y102.647 E51.53279
G1 X142.523 Y103.93 E51.67645
G1 X142.866 Y105.214 E51.82021
G1 X143.807 Y106.152 E51.96393
M204 S625
M205 X30 Y30
G0 F6666.7 X144.232 Y105.415
M204 S500
M205 X25 Y25
;TYPE:WALL-OUTER
G1 F1200 X145.09 Y105.646 E52.0802
G1 X145.948 Y105.415 E52.19646
G1 X146.575 Y104.788 E52.31249
G1 X146.806 Y103.93 E52.42876
G1 X146.575 Y103.072 E52.54503
G1 X145.948 Y102.443 E52.66124
G1 X145.09 Y102.214 E52.77744
G1 X144.232 Y102.443 E52.89364
G1 X143.603 Y103.072 E53.01004
G1 X143.374 Y103.93 E53.12624
G1 X143.603 Y104.788 E53.24244
G1 X144.232 Y105.415 E53.35865
M204 S625
M205 X30 Y30
G0 F6666.7 X144.618 Y105.519
G0 X144.361 Y106.474
G0 X152.356 Y119.839
G0 X152.312 Y119.928
M204 S500
M205 X25 Y25
;TYPE:WALL-INNER
G1 F1200 X151.031 Y119.5 E53.50475
G1 X149.563 Y119.452 E53.66362
G1 X148.15 Y119.83 E53.82184
G1 X147.205 Y120.335 E53.93774
G1 X146.114 Y121.289 E54.09451
G1 X145.989 Y121.429 E54.11481
G1 X145.371 Y122.15 E54.21753
G1 X144.759 Y122.834 E54.31681
G1 X144.219 Y123.266 E54.39162
G1 X143.614 Y123.496 E54.46163
G1 X142.925 Y123.536 E54.53629
G1 X142.232 Y123.363 E54.61355
G1 X141.849 Y123.148 E54.66106
G1 X140.805 Y122.314 E54.8056
G1 X139.773 Y121.377 E54.95638
G1 X139.433 Y121.01 E55.01049
G1 X138.988 Y115.09 E55.65267
G1 X138.794 Y109.947 E56.20938
G1 X138.788 Y108.97 E56.31507
G1 X138.949 Y106.349 E56.59911
G1 X139.426 Y103.815 E56.87803
G1 X140.06 Y101.804 E57.10612
G1 X141.073 Y99.551 E57.37332
G1 X142.226 Y97.638 E57.61493
G1 X143.774 Y95.645 E57.88791
G1 X145.321 Y94.06 E58.12748
G1 X147.328 Y92.408 E58.40867
G1 X148.794 Y91.422 E58.59978
G1 X148.903 Y91.487 E58.6135
G1 X149.277 Y91.826 E58.6681
G1 X149.57 Y92.239 E58.72288
G1 X149.655 Y92.425 E58.745
G1 X150.041 Y93.486 E58.86713
G1 X150.412 Y94.597 E58.99383
G1 X150.424 Y94.902 E59.02685
G1 X150.285 Y95.201 E59.06251
G1 X149.93 Y95.749 E59.13314
G1 X149.602 Y96.52 E59.22377
G1 X149.394 Y97.332 E59.31444
G1 X149.303 Y98.194 E59.4082
G1 X149.444 Y99.725 E59.57451
G1 X150.006 Y101.252 E59.75052
G1 X150.919 Y102.53 E59.92042
G1 X152.035 Y103.436 E60.07591
G1 X153.436 Y104.006 E60.23951
G1 X154.418 Y104.119 E60.34644
G1 X154.424 Y104.119 E60.34709
G1 X154.434 Y104.119 E60.34817
G1 X154.598 Y104.119 E60.36591
G1 X154.637 Y104.119 E60.37013
G1 X155.983 Y104.123 E60.51573
G1 X156.219 Y104.124 E60.54125
G1 X157.389 Y104.139 E60.66782
G1 X158.069 Y104.148 E60.74139
G1 X158.623 Y104.057 E60.80211
G1 X158.796 Y104.029 E60.82107
G1 X159.325 Y103.94 E60.8791
G1 X160.528 Y103.278 E61.02763
G1 X161.49 Y102.238 E61.18087
G1 X162.076 Y101.015 E61.32757
G1 X162.232 Y100.359 E61.40051
G1 X162.573 Y98.523 E61.6025
G1 X162.986 Y96.734 E61.80111
G1 X163.431 Y95.113 E61.98294
G1 X163.951 Y93.486 E62.1677
G1 X164.297 Y92.839 E62.24707
G1 X164.798 Y92.362 E62.32189
G1 X164.963 Y92.284 E62.34164
G1 X166.872 Y93.662 E62.59631
G1 X168.648 Y95.283 E62.85641
G1 X170.289 Y97.183 E63.12798
G1 X171.643 Y99.229 E63.39337
G1 X172.726 Y101.433 E63.659
G1 X173.519 Y103.758 E63.92472
G1 X174.009 Y106.16 E64.1899
G1 X174.205 Y108.608 E64.45555
G1 X174.212 Y109.001 E64.49807
G1 X174.079 Y113.921 E65.03046
G1 X173.648 Y120.12 E65.70262
G1 X173.56 Y121.113 E65.81046
G1 X173.223 Y121.483 E65.86459
G1 X172.181 Y122.431 E66.01697
G1 X171.159 Y123.248 E66.1585
G1 X170.532 Y123.563 E66.23441
G1 X169.876 Y123.671 E66.30632
G1 X169.192 Y123.578 E66.38099
G1 X168.559 Y123.272 E66.45704
G1 X168.228 Y122.981 E66.50472
G1 X167.591 Y122.272 E66.60782
G1 X166.923 Y121.497 E66.71849
G1 X165.831 Y120.508 E66.87786
G1 X164.711 Y119.908 E67.0153
G1 X163.52 Y119.581 E67.14889
G1 X162.212 Y119.565 E67.29039
G1 X161.83 Y119.616 E67.33208
G1 X160.432 Y120.092 E67.49183
G1 X159.244 Y120.971 E67.65168
G1 X158.463 Y122.046 E67.79541
G1 X158.237 Y122.381 E67.83913
G1 X158.164 Y122.394 E67.84715
G1 X156.441 Y122.383 E68.03353
G1 X154.758 Y122.36 E68.2156
G1 X154.635 Y122.327 E68.22937
G1 X154.467 Y122.107 E68.25931
G1 X153.787 Y121.067 E68.39372
G1 X153.378 Y120.654 E68.4566
G1 X152.312 Y119.928 E68.59611
M204 S625
M205 X30 Y30
G0 F6666.7 X152.356 Y119.839
G0 X156.059 Y113.518
G0 X156.141 Y112.601
M204 S500
M205 X25 Y25
;TYPE:WALL-OUTER
G1 F1200 X157.125 Y112.69 E68.72539
G1 X158.243 Y112.437 E68.87538
G1 X159.234 Y111.814 E69.02855
G1 X159.966 Y110.901 E69.18167
G1 X160.387 Y109.737 E69.34364
G1 X160.439 Y108.612 E69.491
G1 X160.22 Y107.602 E69.62624
G1 X159.681 Y106.557 E69.78009
G1 X159.239 Y106.038 E69.86929
G1 X158.346 Y105.388 E70.01382
G1 X157.278 Y105.053 E70.16028
G1 X156.16 Y105.096 E70.30668
G1 X155.079 Y105.539 E70.45955
G1 X154.208 Y106.321 E70.61272
G1 X153.592 Y107.412 E70.77666
G1 X153.347 Y108.513 E70.92425
G1 X153.336 Y109.063 E70.99623
G1 X153.556 Y110.216 E71.14982
G1 X154.096 Y111.23 E71.30015
G1 X154.249 Y111.424 E71.33248
G1 X155.092 Y112.161 E71.479
G1 X156.141 Y112.601 E71.62785
M204 S625
M205 X30 Y30
G0 F6666.7 X156.539 Y112.637
G0 X156.45 Y113.621
G0 X158.577 Y113.244
G0 X160.727 Y111.328
G0 X161.241 Y109.906
G0 X161.037 Y107.309
G0 X159.939 Y105.531
G0 X158.765 Y104.555
G0 X158.721 Y104.644
M204 S500
M205 X25 Y25
;TYPE:WALL-INNER
G1 F1200 X157.986 Y104.414 E71.68223
G1 X157.388 Y104.226 E71.69721
G1 X156.225 Y104.27 E71.71663
G1 X155.983 Y104.28 E71.72223
G1 X154.714 Y104.8 E71.87058
G1 X154.705 Y104.803 E71.8716
G1 X154.699 Y104.805 E71.87229
G1 X154.636 Y104.832 E71.8797
G1 X154.607 Y104.858 E71.88384
G1 X153.559 Y105.799 E72.03619
G1 X152.816 Y107.114 E72.19957
G1 X152.527 Y108.415 E72.34373
G1 X152.512 Y109.133 E72.42141
G1 X152.772 Y110.492 E72.57108
G1 X153.405 Y111.681 E72.71679
G1 X153.651 Y111.993 E72.75976
G1 X154.651 Y112.868 E72.9035
G1 X155.94 Y113.408 E73.05467
G1 X157.18 Y113.52 E73.18935
G1 X158.562 Y113.208 E73.3426
G1 X159.789 Y112.436 E73.49941
G1 X160.693 Y111.309 E73.65569
G1 X161.202 Y109.899 E73.81784
G1 X161.265 Y108.543 E73.96468
G1 X161 Y107.322 E74.09983
G1 X160.368 Y106.096 E74.24903
G1 X159.802 Y105.431 E74.34349
G1 X158.863 Y104.747 E74.46915
G1 X158.721 Y104.644 E74.48638
M204 S625
M205 X30 Y30
G0 F6666.7 X158.765 Y104.555
G0 X160.373 Y103.434
G0 X161.633 Y102.17
G0 X160.802 Y101.771
M204 S500
M205 X25 Y25
;TYPE:WALL-OUTER
G1 F1200 X161.297 Y100.739 E74.63615
G1 X161.428 Y100.189 E74.71013
G1 X161.772 Y98.338 E74.95649
G1 X162.193 Y96.516 E75.20118
G1 X162.638 Y94.895 E75.42114
G1 X163.191 Y93.163 E75.65904
G1 X163.634 Y92.335 E75.78192
G1 X164.327 Y91.676 E75.90705
G1 X165.049 Y91.332 E76.0117
G1 X167.388 Y93.02 E76.38914
G1 X169.238 Y94.709 E76.71693
