;START_OF_HEADER
;HEADER_VERSION:0.1
;FLAVOR:Griffin
;GENERATOR.NAME:Cura_SteamEngine
;GENERATOR.VERSION:4.10.0
;GENERATOR.BUILD_DATE:2021-06-29
;TARGET_MACHINE.NAME:Ultimaker 3
;EXTRUDER_TRAIN.0.INITIAL_TEMPERATURE:220
;EXTRUDER_TRAIN.0.MATERIAL.VOLUME_USED:13352
;EXTRUDER_TRAIN.0.MATERIAL.GUID:506c9f0d-e3aa-4bd4-b2d2-23e2425b1aa9
;EXTRUDER_TRAIN.0.NOZZLE.DIAMETER:0.8
;EXTRUDER_TRAIN.0.NOZZLE.NAME:AA 0.8
;BUILD_PLATE.TYPE:glass
;BUILD_PLATE.INITIAL_TEMPERATURE:65
;PRINT.TIME:1713
;PRINT.GROUPS:1
;PRINT.SIZE.MIN.X:9
;PRINT.SIZE.MIN.Y:-3.5
;PRINT.SIZE.MIN.Z:0.53
;PRINT.SIZE.MAX.X:177.015
;PRINT.SIZE.MAX.Y:126.513
;PRINT.SIZE.MAX.Z:2.73
;END_OF_HEADER
;Generated with Cura_SteamEngine 4.10.0
T0
M82 ;absolute extrusion mode

G92 E0
M109 S220
G0 F15000 X9 Y6 Z2
G280
G1 F1500 E-5
;LAYER_COUNT:12
;LAYER:0
M107
M204 S625
M205 X30 Y30
G0 F6666.7 X115.517 Y5.508 Z0.53
M204 S500
M205 X25 Y25
;TYPE:SKIRT
G1 F900 E0
G1 F1200 X115.518 Y5.004 E0.06595
G1 X115.528 Y4.339 E0.15297
G1 X115.58 Y3.544 E0.25722
G1 X115.711 Y2.758 E0.36149
G1 X115.921 Y1.988 E0.46593
G1 X116.206 Y1.244 E0.57018
G1 X116.565 Y0.532 E0.67452
G1 X116.993 Y-.141 E0.77888
G1 X117.486 Y-.767 E0.88314
G1 X118.04 Y-1.341 E0.98753
G1 X118.648 Y-1.856 E1.09179
G1 X119.305 Y-2.308 E1.19614
G1 X120.003 Y-2.692 E1.30038
G1 X120.737 Y-3.004 E1.40474
G1 X121.498 Y-3.241 E1.50904
G1 X122.279 Y-3.4 E1.61333
G1 X123.253 Y-3.488 E1.7413
G1 X123.797 Y-3.5 E1.8125
G1 X124.36 Y-3.5 E1.88617
G1 X125.172 Y-3.489 E1.99243
G1 X125.967 Y-3.438 E2.09667
G1 X126.754 Y-3.307 E2.20106
G1 X127.523 Y-3.098 E2.30534
G1 X128.268 Y-2.813 E2.40971
G1 X128.98 Y-2.455 E2.51399
G1 X129.653 Y-2.028 E2.61829
G1 X130.28 Y-1.535 E2.72265
G1 X130.854 Y-.982 E2.82695
G1 X131.37 Y-.374 E2.93129
G1 X131.822 Y0.283 E3.03564
G1 X132.206 Y0.981 E3.13989
G1 X132.519 Y1.715 E3.2443
G1 X132.756 Y2.476 E3.34859
G1 X132.916 Y3.257 E3.45291
G1 X133.005 Y4.229 E3.58063
G1 X133.017 Y5.057 E3.68899
G1 X133.005 Y5.955 E3.8065
G1 X132.954 Y6.751 E3.91087
G1 X132.823 Y7.537 E4.01514
G1 X132.614 Y8.306 E4.11941
G1 X132.329 Y9.051 E4.22379
G1 X131.971 Y9.763 E4.32807
G1 X131.543 Y10.436 E4.43243
G1 X131.05 Y11.063 E4.5368
G1 X130.497 Y11.637 E4.64109
G1 X129.889 Y12.152 E4.74535
G1 X129.232 Y12.605 E4.84978
G1 X128.534 Y12.989 E4.95402
G1 X127.8 Y13.301 E5.05838
G1 X127.039 Y13.539 E5.16272
G1 X126.258 Y13.699 E5.26703
G1 X125.29 Y13.787 E5.39422
G1 X124.764 Y13.799 E5.46306
G1 X124.072 Y13.799 E5.55361
G1 X123.374 Y13.79 E5.64495
G1 X122.578 Y13.74 E5.74932
G1 X121.791 Y13.61 E5.85369
G1 X121.022 Y13.403 E5.9579
G1 X120.277 Y13.119 E6.06222
G1 X119.564 Y12.762 E6.16656
G1 X118.89 Y12.335 E6.27097
G1 X118.263 Y11.843 E6.37525
G1 X117.688 Y11.291 E6.47955
G1 X117.171 Y10.684 E6.58388
G1 X116.718 Y10.028 E6.6882
G1 X116.332 Y9.33 E6.79257
G1 X116.019 Y8.597 E6.89686
G1 X115.78 Y7.836 E7.00123
G1 X115.619 Y7.055 E7.10558
G1 X115.529 Y6.056 E7.23683
G1 X115.517 Y5.508 E7.30855
M204 S625
M205 X30 Y30
G0 F6666.7 X116.417 Y5.508
M204 S500
M205 X25 Y25
G1 F1200 X116.418 Y5.018 E7.37267
G1 X116.428 Y4.353 E7.45969
G1 X116.479 Y3.604 E7.55793
G1 X116.61 Y2.865 E7.65613
G1 X116.818 Y2.144 E7.75432
G1 X117.102 Y1.449 E7.85256
G1 X117.458 Y0.788 E7.9508
G1 X117.883 Y0.169 E8.04905
G1 X118.371 Y-.402 E8.14734
G1 X118.917 Y-.917 E8.24555
G1 X119.514 Y-1.372 E8.34377
G1 X120.157 Y-1.76 E8.44204
G1 X120.837 Y-2.078 E8.54027
G1 X121.547 Y-2.322 E8.6385
G1 X122.279 Y-2.488 E8.73672
G1 X123.279 Y-2.588 E8.86822
G1 X123.797 Y-2.6 E8.93602
G1 X124.36 Y-2.6 E9.00969
G1 X125.159 Y-2.589 E9.11425
G1 X125.908 Y-2.539 E9.21248
G1 X126.647 Y-2.409 E9.31066
G1 X127.369 Y-2.201 E9.40898
G1 X128.064 Y-1.917 E9.50722
G1 X128.725 Y-1.561 E9.60546
G1 X129.344 Y-1.137 E9.70363
G1 X129.915 Y-.65 E9.80183
G1 X130.431 Y-.104 E9.90013
G1 X130.886 Y0.493 E9.99835
G1 X131.275 Y1.135 E10.09658
G1 X131.593 Y1.815 E10.19481
G1 X131.837 Y2.525 E10.29304
G1 X132.005 Y3.257 E10.39132
G1 X132.105 Y4.255 E10.52256
G1 X132.117 Y5.06 E10.62791
G1 X132.105 Y5.942 E10.74333
G1 X132.054 Y6.691 E10.84156
G1 X131.924 Y7.43 E10.93974
G1 X131.716 Y8.152 E11.03806
G1 X131.433 Y8.847 E11.13625
G1 X131.077 Y9.508 E11.23449
G1 X130.653 Y10.127 E11.33267
G1 X130.165 Y10.698 E11.43095
G1 X129.619 Y11.214 E11.52925
G1 X129.022 Y11.669 E11.62747
G1 X128.38 Y12.057 E11.72563
G1 X127.7 Y12.375 E11.82386
G1 X126.99 Y12.62 E11.92214
G1 X126.258 Y12.787 E12.02038
G1 X125.263 Y12.887 E12.15123
G1 X124.762 Y12.899 E12.21681
G1 X124.083 Y12.899 E12.30566
G1 X123.385 Y12.89 E12.397
G1 X122.636 Y12.841 E12.49522
G1 X121.896 Y12.712 E12.59351
G1 X121.175 Y12.505 E12.69166
G1 X120.479 Y12.222 E12.78997
G1 X119.818 Y11.868 E12.88809
G1 X119.198 Y11.444 E12.98637
G1 X118.626 Y10.958 E13.08459
G1 X118.109 Y10.413 E13.18288
G1 X117.654 Y9.816 E13.2811
G1 X117.264 Y9.175 E13.37928
G1 X116.945 Y8.495 E13.47757
G1 X116.699 Y7.786 E13.57577
G1 X116.531 Y7.054 E13.67404
G1 X116.429 Y6.031 E13.80856
G1 X116.417 Y5.508 E13.87702
M204 S625
M205 X30 Y30
G0 F6666.7 X117.317 Y5.124
M204 S500
M205 X25 Y25
G1 F1200 X117.328 Y4.367 E13.97608
G1 X117.378 Y3.667 E14.06791
G1 X117.508 Y2.978 E14.15966
G1 X117.715 Y2.308 E14.25142
G1 X117.998 Y1.667 E14.3431
G1 X118.351 Y1.061 E14.43487
G1 X118.771 Y0.5 E14.52657
G1 X119.252 Y-0.01 E14.6183
G1 X119.788 Y-.462 E14.71005
G1 X120.373 Y-.85 E14.8019
G1 X120.997 Y-1.169 E14.8936
G1 X121.654 Y-1.414 E14.98536
G1 X122.334 Y-1.584 E15.07707
G1 X123.304 Y-1.689 E15.20474
G1 X123.797 Y-1.7 E15.26927
G1 X124.36 Y-1.7 E15.34293
G1 X125.146 Y-1.689 E15.44579
G1 X125.845 Y-1.639 E15.53749
G1 X126.535 Y-1.51 E15.62934
G1 X127.205 Y-1.303 E15.7211
G1 X127.847 Y-1.021 E15.81286
G1 X128.452 Y-.668 E15.90451
G1 X129.014 Y-.249 E15.99624
G1 X129.524 Y0.232 E16.08797
G1 X129.976 Y0.768 E16.17971
G1 X130.365 Y1.352 E16.27153
G1 X130.684 Y1.976 E16.36323
G1 X130.93 Y2.632 E16.45491
G1 X131.1 Y3.313 E16.54675
G1 X131.205 Y4.281 E16.67416
G1 X131.217 Y5.062 E16.77637
G1 X131.205 Y5.929 E16.88983
G1 X131.155 Y6.628 E16.98152
G1 X131.026 Y7.317 E17.07325
G1 X130.819 Y7.987 E17.16501
G1 X130.537 Y8.629 E17.25676
G1 X130.184 Y9.235 E17.34853
G1 X129.764 Y9.797 E17.44033
G1 X129.283 Y10.307 E17.53206
G1 X128.747 Y10.759 E17.62381
G1 X128.163 Y11.147 E17.71555
G1 X127.539 Y11.466 E17.80726
G1 X126.883 Y11.712 E17.89893
G1 X126.202 Y11.882 E17.99078
G1 X125.237 Y11.987 E18.11779
G1 X124.761 Y11.999 E18.1801
G1 X124.095 Y11.999 E18.26724
G1 X123.397 Y11.99 E18.35858
G1 X122.697 Y11.941 E18.4504
G1 X122.008 Y11.813 E18.5421
G1 X121.338 Y11.607 E18.63382
G1 X120.695 Y11.326 E18.72564
G1 X120.089 Y10.974 E18.81735
G1 X119.527 Y10.555 E18.90907
G1 X119.016 Y10.075 E19.00081
G1 X118.563 Y9.54 E19.09254
G1 X118.174 Y8.957 E19.18425
G1 X117.854 Y8.333 E19.27601
G1 X117.606 Y7.677 E19.36778
G1 X117.436 Y6.997 E19.4595
G1 X117.328 Y6.007 E19.58981
G1 X117.317 Y5.124 E19.70536
M204 S625
M205 X30 Y30
G0 F6666.7 X118.217 Y5.124
M204 S500
M205 X25 Y25
G1 F1200 X118.228 Y4.38 E19.80272
G1 X118.277 Y3.734 E19.88749
G1 X118.406 Y3.099 E19.97228
G1 X118.612 Y2.485 E20.05702
G1 X118.892 Y1.901 E20.14177
G1 X119.242 Y1.356 E20.22652
G1 X119.656 Y0.858 E20.31126
G1 X120.129 Y0.415 E20.39606
G1 X120.653 Y0.034 E20.48084
G1 X121.219 Y-.281 E20.5656
G1 X121.82 Y-.523 E20.65037
G1 X122.446 Y-.689 E20.73512
G1 X123.329 Y-.789 E20.8514
G1 X123.797 Y-.8 E20.91265
G1 X124.36 Y-.8 E20.98632
G1 X125.133 Y-.789 E21.08748
G1 X125.779 Y-.74 E21.17225
G1 X126.414 Y-.612 E21.25701
G1 X127.028 Y-.406 E21.34176
G1 X127.613 Y-.127 E21.42657
G1 X128.158 Y0.223 E21.51132
G1 X128.656 Y0.637 E21.59606
G1 X129.1 Y1.109 E21.68085
G1 X129.481 Y1.632 E21.76552
G1 X129.796 Y2.199 E21.85039
G1 X130.038 Y2.799 E21.93505
G1 X130.205 Y3.425 E22.01983
G1 X130.306 Y4.307 E22.13599
G1 X130.317 Y5.065 E22.23519
G1 X130.305 Y5.916 E22.34655
G1 X130.256 Y6.562 E22.43133
G1 X130.128 Y7.197 E22.51609
G1 X129.922 Y7.811 E22.60083
G1 X129.642 Y8.395 E22.68558
G1 X129.293 Y8.941 E22.77037
G1 X128.879 Y9.439 E22.85511
G1 X128.406 Y9.882 E22.93991
G1 X127.883 Y10.264 E23.02465
G1 X127.317 Y10.578 E23.10935
G1 X126.716 Y10.821 E23.19418
G1 X126.09 Y10.987 E23.27892
G1 X125.21 Y11.088 E23.39482
G1 X124.759 Y11.099 E23.45386
G1 X124.106 Y11.1 E23.5393
G1 X123.408 Y11.091 E23.63064
G1 X122.762 Y11.042 E23.71542
G1 X122.127 Y10.915 E23.80015
G1 X121.513 Y10.71 E23.88485
G1 X120.928 Y10.431 E23.96966
G1 X120.382 Y10.083 E24.05438
G1 X119.883 Y9.669 E24.13923
G1 X119.439 Y9.198 E24.22392
G1 X119.057 Y8.675 E24.30867
G1 X118.741 Y8.109 E24.39349
G1 X118.498 Y7.509 E24.4782
G1 X118.33 Y6.883 E24.56301
G1 X118.228 Y5.983 E24.68153
G1 X118.217 Y5.124 E24.79394
M204 S625
M205 X30 Y30
G0 F6666.7 X119.117 Y5.059
M204 S500
M205 X25 Y25
G1 F1200 X119.127 Y4.394 E24.88096
G1 X119.176 Y3.806 E24.95817
G1 X119.304 Y3.23 E25.03538
G1 X119.509 Y2.677 E25.11255
G1 X119.786 Y2.157 E25.18965
G1 X120.131 Y1.679 E25.26678
G1 X120.538 Y1.252 E25.34397
G1 X120.998 Y0.884 E25.42105
G1 X121.504 Y0.582 E25.49816
G1 X122.047 Y0.351 E25.57537
G1 X122.615 Y0.195 E25.65245
G1 X123.355 Y0.111 E25.7499
G1 X123.797 Y0.1 E25.80776
G1 X124.422 Y0.1 E25.88954
G1 X125.12 Y0.11 E25.98088
G1 X125.708 Y0.159 E26.05809
G1 X126.284 Y0.286 E26.13527
G1 X126.837 Y0.49 E26.2124
G1 X127.357 Y0.767 E26.28949
G1 X127.835 Y1.112 E26.36663
G1 X128.263 Y1.518 E26.44382
G1 X128.631 Y1.979 E26.521
G1 X128.934 Y2.485 E26.59818
G1 X129.165 Y3.027 E26.67527
G1 X129.321 Y3.595 E26.75235
G1 X129.406 Y4.334 E26.84968
G1 X129.417 Y5.067 E26.94561
G1 X129.406 Y5.903 E27.05501
G1 X129.357 Y6.491 E27.13222
G1 X129.23 Y7.066 E27.20927
G1 X129.025 Y7.619 E27.28644
G1 X128.748 Y8.14 E27.36365
G1 X128.404 Y8.618 E27.44071
G1 X127.997 Y9.045 E27.5179
G1 X127.537 Y9.413 E27.59498
G1 X127.031 Y9.716 E27.67216
G1 X126.489 Y9.947 E27.74925
G1 X125.92 Y10.103 E27.82645
G1 X125.184 Y10.188 E27.9234
G1 X124.758 Y10.199 E27.97916
G1 X124.118 Y10.2 E28.0629
G1 X123.42 Y10.191 E28.15425
G1 X122.832 Y10.143 E28.23144
G1 X122.256 Y10.017 E28.30859
G1 X121.703 Y9.813 E28.38572
G1 X121.182 Y9.537 E28.46287
G1 X120.703 Y9.193 E28.54004
G1 X120.276 Y8.787 E28.61713
G1 X119.907 Y8.327 E28.6943
G1 X119.603 Y7.822 E28.77143
G1 X119.371 Y7.28 E28.84857
G1 X119.214 Y6.712 E28.92568
G1 X119.128 Y5.959 E29.02485
G1 X119.117 Y5.059 E29.14263
M204 S625
M205 X30 Y30
G0 F6666.7 X120.017 Y5.072
M104 S215
M204 S500
M205 X25 Y25
G1 F1200 X120.027 Y4.407 E29.22965
G1 X120.075 Y3.884 E29.29838
G1 X120.202 Y3.375 E29.36702
G1 X120.404 Y2.89 E29.43577
G1 X120.678 Y2.442 E29.50449
G1 X121.016 Y2.041 E29.57311
G1 X121.411 Y1.696 E29.64173
G1 X121.855 Y1.414 E29.71056
G1 X122.335 Y1.203 E29.77917
G1 X122.843 Y1.068 E29.84795
G1 X123.38 Y1.01 E29.91862
G1 X123.797 Y1 E29.97321
G1 X124.409 Y1 E30.05329
G1 X125.107 Y1.01 E30.14463
G1 X125.63 Y1.058 E30.21335
G1 X126.14 Y1.184 E30.28209
G1 X126.624 Y1.386 E30.35072
G1 X127.073 Y1.659 E30.41948
G1 X127.474 Y1.997 E30.4881
G1 X127.82 Y2.393 E30.55691
G1 X128.102 Y2.836 E30.62563
G1 X128.313 Y3.316 E30.69424
G1 X128.449 Y3.823 E30.76292
G1 X128.507 Y4.36 E30.8336
G1 X128.517 Y5.07 E30.92651
G1 X128.506 Y5.89 E31.03382
G1 X128.458 Y6.413 E31.10254
G1 X128.332 Y6.922 E31.17116
G1 X128.13 Y7.407 E31.2399
G1 X127.856 Y7.855 E31.30862
G1 X127.518 Y8.257 E31.37734
G1 X127.123 Y8.602 E31.44597
G1 X126.68 Y8.884 E31.51468
G1 X126.199 Y9.095 E31.58341
G1 X125.692 Y9.231 E31.6521
G1 X125.157 Y9.289 E31.72251
G1 X124.756 Y9.299 E31.775
G1 X124.13 Y9.3 E31.85691
G1 X123.432 Y9.291 E31.94826
G1 X122.909 Y9.244 E32.01697
G1 X122.399 Y9.119 E32.08568
G1 X121.914 Y8.917 E32.15442
G1 X121.465 Y8.645 E32.22312
G1 X121.063 Y8.307 E32.29184
G1 X120.717 Y7.912 E32.36055
G1 X120.435 Y7.47 E32.42916
G1 X120.223 Y6.99 E32.49782
G1 X120.086 Y6.483 E32.56654
G1 X120.027 Y5.934 E32.63879
G1 X120.017 Y5.072 E32.75159
M204 S625
M205 X30 Y30
G1 F1500 E27.75159
;MESH:Side_Shield_EH_conductive_withhole.STL
G0 F6666.7 X123.937 Y5.072
G0 X124.616 Y5.4
M204 S500
M205 X25 Y25
;TYPE:WALL-OUTER
G1 F900 E32.75159
G1 F1200 X123.917 Y5.4 E32.84306
G1 X123.917 Y4.9 E32.90848
G1 X124.617 Y4.9 E32.9594
G1 X124.616 Y5.4 E33.01025
M204 S625
M205 X30 Y30
G0 F6666.7 X124.216 Y5.4
G1 F1500 E28.01025
;MESH:NONMESH
G0 F600 X124.216 Y5.4 Z1.53
G0 F6666.7 X124.216 Y5.3
G0 X124.602 Y7.39
G0 X158.628 Y104.838
;TIME_ELAPSED:17.522529
;LAYER:5
M204 S1000
M205 X25 Y25
;TYPE:WALL-INNER
;MESH:Side_Shield_EH_conductive_1mm.STL(1)
G1 F900 E33.01025
G1 F2400 X157.705 Y104.548 E33.04316
G1 X157.364 Y104.441 E33.05531
G1 X156.244 Y104.483 E33.09344
G1 X156.034 Y104.491 E33.10059
G1 X155.944 Y104.527 E33.10388
G1 X154.753 Y105.013 E33.14764
G1 X153.728 Y105.933 E33.19449
G1 X153.017 Y107.189 E33.24358
G1 X152.739 Y108.438 E33.28711
G1 X152.724 Y109.078 E33.30889
G1 X152.962 Y110.385 E33.35408
G1 X153.562 Y111.537 E33.39826
G1 X153.811 Y111.853 E33.41194
G1 X154.776 Y112.692 E33.45544
G1 X156.004 Y113.202 E33.50067
G1 X157.163 Y113.306 E33.54025
G1 X158.476 Y113.011 E33.58603
G1 X159.644 Y112.278 E33.63294
G1 X160.503 Y111.205 E33.67969
G1 X160.992 Y109.859 E33.7284
G1 X161.052 Y108.56 E33.77264
G1 X160.795 Y107.378 E33.81378
G1 X160.182 Y106.201 E33.85892
G1 X159.661 Y105.59 E33.88624
G1 X158.628 Y104.838 E33.9297
M204 S5000
M205 X30 Y30
G0 F15000 X158.316 Y105.458
M204 S500
M205 X25 Y25
;TYPE:WALL-OUTER
G1 F2100 X157.272 Y105.13 E33.97473
G1 X156.18 Y105.171 E34.01969
G1 X155.122 Y105.602 E34.0667
G1 X154.269 Y106.368 E34.11388
G1 X153.663 Y107.438 E34.16448
G1 X153.422 Y108.521 E34.21013
G1 X153.41 Y109.024 E34.23083
G1 X153.617 Y110.16 E34.27835
G1 X154.14 Y111.164 E34.32493
G1 X154.309 Y111.379 E34.33618
G1 X155.141 Y112.102 E34.38154
G1 X156.17 Y112.529 E34.42738
G1 X157.117 Y112.614 E34.4665
G1 X158.211 Y112.368 E34.51264
G1 X159.182 Y111.759 E34.55981
G1 X159.898 Y110.865 E34.60694
G1 X160.313 Y109.723 E34.65693
G1 X160.364 Y108.618 E34.70245
G1 X160.145 Y107.613 E34.74478
G1 X159.61 Y106.586 E34.79242
G1 X159.192 Y106.096 E34.81893
G1 X158.316 Y105.458 E34.86352
M204 S5000
M205 X30 Y30
G0 F15000 X157.935 Y105.339
G0 X158.183 Y104.552
G0 X161.315 Y102.115
M204 S1000
M205 X25 Y25
;TYPE:WALL-INNER
G1 F2400 X161.877 Y100.942 E34.90776
G1 X162.025 Y100.315 E34.92968
G1 X162.372 Y98.447 E34.99431
G1 X162.782 Y96.677 E35.05611
G1 X163.228 Y95.052 E35.11343
G1 X163.753 Y93.407 E35.17216
G1 X164.125 Y92.71 E35.19904
G1 X164.677 Y92.186 E35.22493
G1 X164.986 Y92.038 E35.23658
G1 X167.003 Y93.495 E35.32122
G1 X168.806 Y95.139 E35.40422
G1 X170.457 Y97.055 E35.49025
G1 X171.835 Y99.136 E35.57515
G1 X172.924 Y101.353 E35.65917
G1 X173.728 Y103.719 E35.74417
G1 X174.219 Y106.136 E35.82807
G1 X174.417 Y108.618 E35.91276
G1 X174.424 Y108.993 E35.92552
G1 X174.289 Y113.956 E36.0944
G1 X173.859 Y120.143 E36.30537
G1 X173.768 Y121.178 E36.34071
G1 X173.715 Y121.262 E36.34409
G1 X173.361 Y121.645 E36.36183
G1 X172.326 Y122.588 E36.40945
G1 X171.271 Y123.43 E36.45537
G1 X170.602 Y123.766 E36.48084
G1 X169.88 Y123.885 E36.50573
G1 X169.126 Y123.783 E36.53161
G1 X168.44 Y123.45 E36.55755
G1 X168.079 Y123.132 E36.57391
G1 X167.424 Y122.403 E36.60725
G1 X166.77 Y121.645 E36.6413
G1 X165.707 Y120.683 E36.69007
G1 X164.635 Y120.108 E36.73145
G1 X163.483 Y119.791 E36.77209
G1 X162.251 Y119.774 E36.814
G1 X161.879 Y119.822 E36.82676
G1 X160.532 Y120.282 E36.87518
G1 X159.395 Y121.124 E36.9233
G1 X158.644 Y122.158 E36.96678
G1 X158.373 Y122.552 E36.98304
G1 X158.183 Y122.606 E36.98976
G1 X156.438 Y122.595 E37.04912
G1 X154.731 Y122.572 E37.10719
G1 X154.527 Y122.516 E37.11439
G1 X154.365 Y122.362 E37.12199
G1 X154.285 Y122.216 E37.12765
G1 X153.619 Y121.196 E37.16909
G1 X153.241 Y120.819 E37.18725
G1 X152.216 Y120.12 E37.22945
G1 X151.109 Y119.749 E37.26916
G1 X150.946 Y119.71 E37.27487
G1 X149.587 Y119.665 E37.32112
G1 X148.225 Y120.03 E37.36908
G1 X147.332 Y120.509 E37.40355
G1 X146.258 Y121.443 E37.45197
G1 X145.529 Y122.29 E37.48998
G1 X144.907 Y122.986 E37.52173
G1 X144.321 Y123.454 E37.54724
G1 X143.659 Y123.706 E37.57134
G1 X142.904 Y123.75 E37.59706
G1 X142.151 Y123.561 E37.62347
G1 X141.725 Y123.321 E37.6401
G1 X140.68 Y122.487 E37.68558
G1 X139.617 Y121.521 E37.73444
